X:1
T:Desdenyado soy
T:Anonymous
T:Source ; Cancionero de Uppsala : Villancicos---Venetia---G.Scotto---1556. Editor : André Vierendeels (11/04/17).
T:Notes : Original clefs : C4, C4, F3 Editorial accidentals above the staff Original note values have been halved Square brackets indicate ligatures
T:Desdenyado soy
T:©
T:©
T:©
C:Anonymous
Z:©
%%score [ 1 2 3 ]
L:1/8
Q:1/4=120
M:2/2
K:C
V:1 treble-8 nm="Tenor 1" snm="T 1"
V:2 treble-8 nm="Tenor 2" snm="T 2"
V:3 bass nm="Bass" snm="B"
V:1
 E4 E4 | G3 A B2 c2- | c2 BA G4 | E4 F4 | E4 z2 A2- | AGFE FE A2- |"^#" A2 G2 A4- | A4 z4 | %8
w: Des- de-|nya- do soy de||a- *|mor de|_ _ _ _ _ _ a-|* * mor,|_|
w: Y del|tiem- po que- os|_ he _ ser-|vi- *|do, he|_ _ _ _ _ _ ser-|* vi- do,|_|
 z2 A4 F2 | G2 G2 A4 | G4 E4 | z4 z2 e2- | e2 c2 d2 d2 | e4 d4 | B2 e3 d c2 | B2 A2 B4 | A8 || z8 | %18
w: guar- deos|Dios de tal|do- lor,|guar-|* deos Dios de|tal do-|||lor.||
w: no tien-|go nin- gun|fa- vor,|guar-|* deos Dios de|tal do-|||lor.||
 A4 A4 | G2 E2 F4 | G4 A4- | A4 G4 | E4 F4 | G4 A4 |"^#" G8 |] %25
w: Des- de|nya- do y|mal que-|* ri-|do, _|que- ri-|do.|
w: Mal- tra-|ta- do ya|bor- re-|çi- do,|bor- *|re- çi-|do.|
V:2
 z8 | E4 E4 | G3 A B2 c2- | cB c3 B A2- | A2 G2 A4- | A4 z4 | z4 z2 e2- | e2 c2 d2 d2 | e4 d4 | %9
w: |Des- de-|nya- do soy de|_ _ a- * *|* * mor,|_|guar-|* deos Dios de|tal do-|
w: |Y del|tiem- * po queos|_ he ser- * *|* vi- do,|_|no|_ me da- i|nin- gun|
 B4 c4 | B4 z2 A2- | A2 F2 G2 G2 | A4 A2 B2 | z2 A4 F2 | G2 G2 A2 A2 |"^#" G2 A4 G2 | A8 || z8 | %18
w: |lor, guar-|* deos Dios de|tal do- lor,|guar- deos|Dios de tal do-||lor.||
w: fa- *|vor, no|_ tien- go nin-|gun fa- vor,|no ten-|gun, no ten- gun|fa- * *|vor.||
 z4 e4 | e4 d4 | B2 B2 c4 | d4 e4- | e4 d4 | B4 c4 | B8 |] %25
w: Des-|de- nya-|do y mal|que- ri-|* do,|que- ri-|do.|
w: Mal-|tra- ta-|ta do- ya|bor- re|_ çi-||do.|
V:3
 z8 | z8 | E,4 E,4 | G,4 A,4 | B,4 A,3 G, | F,E, D,4 C,2 | B,,4 A,,4 | z2 A,2 F,2 G,2- | %8
w: ||Des- de-|nya- do|soy de _||a- mor,|guar- deos Dios|
w: ||Y del|tiem- po|que- os _|_ _ he ser-|vi- do|no tien- go|
 G,2 C,2 D,2 D,2 | E,4 A,,4 | z2 E,4 C,2 | D,2 D,2 E,2 E,2 | A,,2 A,2 F,2 G,2- | G,2 C,2 D,2 D,2 | %14
w: _ de tal do-|* lor,|guar- deos|Dios de tal do-|lor, guar- deos Dios|_ de tal do-|
w: _ nin- gun fa-|* vor,|guar- deos|Dios de tal do-|lor, guar- deos Dios|_ de tal do-|
 E,4 E,4 | E,8 | A,,8 || E,4 E,4 | D,4 C,2 A,,2 | C,4 D,4 | E,4 A,,2 F,2- | F,2 F,2 E,4 | C,4 D,4 | %23
w: lor, tal|do-|lor.|Des- de-|nya- do y|mal que-|ri- do, y|_ mal que-|ri- do,|
w: lor, tal|do|lor.|Mal- tra-|ta- do ya|bor- re-|çi- do, ya|_ bor- re|çi- *|
 E,4 A,,4 | E,8 |] %25
w: que- ri-|do.|
w: |do/|

